X:1
T:Title
%%score { ( 1 3 ) | 2 }
L:1/8
Q:1/4=100
M:4/4
K:Ab
V:1 treble nm="Grand Piano"
V:3 treble 
V:2 bass 
V:1
 [CE]2 [CE]>[CE] [DF][DG][FA][FB] | [Ec]2 [Ec]2 [Ec]4 | c2 B>B BBcB | [CB]2 [CA]2 [CE]4 | %4
w: C.~F.~Green * * * * * *||||
 [CE]2 [CE]>[CE] [DF][DG][FA][FB] | [Ec]2 d2 c4 | cBBB [Ac]2 [A=d]2 | [Ge]6 z2 | ecAF E2 A2 | %9
w: |||||
 G6 z2 | dBGF E2 d2 | c6 z2 | e[Ec][CA][DF] [CE]2 [EA][EA] | [EG]2 [DF]2 [Fd]4 | cEFE B2 B2 | %15
w: ||||||
 [CA]6 z2 |] %16
w: |
V:2
 [A,,A,]2 [A,,A,]>[A,,A,] [D,A,][D,A,][D,A,][D,A,] | [A,,A,]2 [A,,A,]2 [A,,A,]4 | %2
 [E,A,E]2 [E,G,D]>[E,G,D] [E,G,D][E,G,D][E,A,E][E,G,D] | [A,,A,]2 [A,,A,]2 [A,,A,]4 | %4
 [A,,A,]2 [A,,A,]>[A,,A,] [D,A,][D,A,][D,A,][D,A,] | [A,,A,]2[K:treble] [A,F]2 [A,E]4 | %6
 [B,EA][B,EG][B,EG][B,EG][K:bass] [B,,B,]2 [B,,B,]2 | E,6 z2 | %8
 [A,CA][A,EA][A,CE][A,D] [A,C]2[K:bass] [A,CE]2 | [E,B,E]2 [E,B,]2 [E,B,]2 z2 | %10
 [E,B,E][E,B,E][E,B,E][E,A,E] [E,G,]2 [E,B,E]2 | [A,E]2 A,2 A,2 z2 | %12
 [A,,CE][A,,A,][A,,E,][A,,A,] [A,,A,]2 [C,A,][C,A,] | [D,A,]2 [D,A,]2 [D,A,]4 | %14
 [E,A,E][D,A,C][E,A,D][E,A,C] [E,G,D]2 [E,G,D]2 | [A,,A,]6 z2 |] %16
V:3
 x8 | x8 | x8 | x8 | x8 | x8 | x8 | x8 | x8 | z2 E2 E2 z2 | x8 | z2 E2 E2 z2 | x8 | x8 | x8 | x8 |] %16

